X:183
T: EIN SCHIFFLEIN SAH ICH FAHREN
N: E1326A
O: Europa, Mitteleuropa, Deutschland
R: Staende -, Soldaten -, Kriegs - Lied
M: 4/4
L: 1/8
K: F
C2 | F2A2AGG2 | F4C2
FA | c2c2cBB2 | A4z2
AB | c2c2c2dc | cBB2z2
cB | AAAAc2BA | AGG2z2
cB | A2F2F2cB | A2F2F2
cB | AGABAGAB | AGABc2
d2 | c4B2BB | A4G2
G2 | A2G2A2BB | c4F2

@@@ Tune index: 4867
